X:1
T:test theme
M:4/4
L:1/16
R:jig
K:C
/* Notes */
c8e4g4 | d8f4g4 | c8e4g4 | d8f4g4 | b8g4b4 | c'0 |
C8E4G4 | D8F4G4 | C8E4G4 | D8F4G4 | B8G4B4 | C'0

